X: 27279
T: Miss Thornton's
R: reel
M: 4/4
K: Gmajor
|:G2B/c/d gdBd|cBA2 cedc|BGAF GBdg|ecAF GFED|
G2B/c/d gdBd|cBA2 cedc|BGAF GBdg|1 ecAF G4:|2 egfa g4||
|:bggg bgag|egdg egdg|bggg bgag|eaag a4|
bggg bgag|egdg egdg|bgaf gfed|1 e/f/gfa g4:|2 ezf/e/f gedB||

